packages/kaspersky-hexa-ui-icons/src/iconsSVGs/24/ServiceK8S.svg

<svg xmlns="http://www.w3.org/2000/svg" width="24" height="24" fill="none" viewBox="0 0 24 24"><path fill="#000" fill-rule="evenodd" d="M8 5c0-1.1046.8954-2 2-2h4c1.1046 0 2 .8954 2 2v2h2c1.6569 0 3 1.3431 3 3v6h.4c.8837 0 1.6.7163 1.6 1.6v2.8c0 .8837-.7163 1.6-1.6 1.6h-2.8c-.8837 0-1.6-.7163-1.6-1.6v-2.8c0-.8837.7163-1.6 1.6-1.6h.4v-6c0-.5523-.4477-1-1-1h-2c0 1.1046-.8954 2-2 2h-1v5h.4c.8837 0 1.6.7163 1.6 1.6v2.8c0 .8837-.7163 1.6-1.6 1.6h-2.8c-.8837 0-1.6-.7163-1.6-1.6v-2.8c0-.8837.7163-1.6 1.6-1.6h.4v-5h-1c-1.1046 0-2-.8954-2-2H6c-.5523 0-1 .4477-1 1v6h.4c.8837 0 1.6.7163 1.6 1.6v2.8c0 .8837-.7163 1.6-1.6 1.6H2.6c-.8837 0-1.6-.7163-1.6-1.6v-2.8c0-.8837.7163-1.6 1.6-1.6H3v-6c0-1.6569 1.3431-3 3-3h2zm6 0h-4v4h4zm-3 13v2h2v-2zm-8 2v-2h2v2zm16-2v2h2v-2z"/></svg>

<svg width="24" height="24" viewBox="0 0 24 24" fill="none" xmlns="http://www.w3.org/2000/svg">
<path fill-rule="evenodd" clip-rule="evenodd" d="M8 5C8 3.89543 8.89543 3 10 3H14C15.1046 3 16 3.89543 16 5V7H18C19.6569 7 21 8.34315 21 10V16H21.4C22.2837 16 23 16.7163 23 17.6V20.4C23 21.2837 22.2837 22 21.4 22H18.6C17.7163 22 17 21.2837 17 20.4V17.6C17 16.7163 17.7163 16 18.6 16H19V10C19 9.44772 18.5523 9 18 9H16C16 10.1046 15.1046 11 14 11H13V16H13.4C14.2837 16 15 16.7163 15 17.6V20.4C15 21.2837 14.2837 22 13.4 22H10.6C9.71634 22 9 21.2837 9 20.4V17.6C9 16.7163 9.71634 16 10.6 16H11V11H10C8.89543 11 8 10.1046 8 9H6C5.44772 9 5 9.44772 5 10V16H5.4C6.28366 16 7 16.7163 7 17.6V20.4C7 21.2837 6.28366 22 5.4 22H2.6C1.71634 22 1 21.2837 1 20.4V17.6C1 16.7163 1.71634 16 2.6 16H3V10C3 8.34315 4.34315 7 6 7H8V5ZM14 5H10V9H14V5ZM11 18V20H13V18H11ZM3 20V18H5V20H3ZM19 18V20H21V18H19Z" fill="black"/>
</svg>
